static/assets/emoji/svg/1f441.svg

<svg enable-background="new 0 0 128 128" viewBox="0 0 128 128" xmlns="http://www.w3.org/2000/svg" xmlns:xlink="http://www.w3.org/1999/xlink"><path d="M123.62,64c0,0-12.89,41.24-59.54,41.24S4.54,64,4.54,64s13.75-41.24,59.54-41.24 S123.62,64,123.62,64z" fill="#fff"/><linearGradient id="c" x1="64" x2="64" y1="36.924" y2="108.92" gradientUnits="userSpaceOnUse"><stop stop-color="#424242" offset="0"/><stop stop-color="#757575" offset="1"/></linearGradient><circle cx="64" cy="64" r="38.66" fill="url(#c)"/><circle cx="43" cy="51" r="9" fill="#eee"/><g opacity=".2"><path d="m64 27.34c20.21 0 36.66 16.45 36.66 36.66s-16.45 36.66-36.66 36.66-36.66-16.45-36.66-36.66 16.45-36.66 36.66-36.66m0-2c-21.35 0-38.66 17.31-38.66 38.66s17.31 38.66 38.66 38.66 38.66-17.31 38.66-38.66-17.31-38.66-38.66-38.66z" fill="#E0E0E0"/></g><path d="M64.08,35.76c34.41,0,50.72,23.28,56.7,34.86c2-3.96,2.83-6.62,2.83-6.62s-13.75-41.24-59.54-41.24 C18.29,22.76,4.54,64,4.54,64s0.83,2.66,2.83,6.62C13.36,59.04,29.67,35.76,64.08,35.76z" fill="#424242"/><g opacity=".2"><path d="m64.08 25.76c18.01 0 33 6.54 44.54 19.44 7.17 8.01 10.74 16.14 11.8 18.83-1.01 2.69-4.42 10.8-11.49 18.79-11.4 12.89-26.49 19.42-44.85 19.42s-33.45-6.53-44.85-19.42c-7.07-7.99-10.49-16.11-11.5-18.79 1.06-2.69 4.63-10.82 11.8-18.83 11.55-12.9 26.54-19.44 44.55-19.44m0-3c-45.79 0-59.54 41.24-59.54 41.24s12.89 41.24 59.54 41.24 59.54-41.24 59.54-41.24-13.75-41.24-59.54-41.24z" fill="#424242"/></g><g display="none"><g display="inline" opacity=".3"><g opacity=".6"><circle cx="64" cy="64" r="28" fill="none" opacity=".61" stroke="#000" stroke-miterlimit="10" stroke-width=".2625"/><line x1="84" x2="84" y2="128" fill="none" opacity=".61" stroke="#000" stroke-miterlimit="10" stroke-width=".25"/><line x1="44" x2="44" y2="128" fill="none" opacity=".61" stroke="#000" stroke-miterlimit="10" stroke-width=".25"/><line x1="64" x2="64" y2="128" fill="none" opacity=".61" stroke="#000" stroke-miterlimit="10" stroke-width=".25"/><line x1="128" y1="64" y2="64" fill="none" opacity=".61" stroke="#000" stroke-miterlimit="10" stroke-width=".25"/><line x1="128" y1="44" y2="44" fill="none" opacity=".61" stroke="#000" stroke-miterlimit="10" stroke-width=".25"/><line x1="128" y1="83.75" y2="83.75" fill="none" opacity=".61" stroke="#000" stroke-miterlimit="10" stroke-width=".25"/><line x1="128" y1="128" fill="none" opacity=".61" stroke="#000" stroke-miterlimit="10" stroke-width=".25"/><line x2="128" y1="128" fill="none" opacity=".61" stroke="#000" stroke-miterlimit="10" stroke-width=".25"/><g opacity=".61"><path d="m64 4.26c32.94 0 59.74 26.8 59.74 59.74s-26.8 59.74-59.74 59.74-59.74-26.8-59.74-59.74 26.8-59.74 59.74-59.74m0-0.26c-33.14 0-60 26.86-60 60s26.86 60 60 60 60-26.86 60-60-26.86-60-60-60z"/></g><path d="m107.97 115.97h-87.94c-4.42 0-8.03-3.61-8.03-8.03v-87.91c0-4.42 3.61-8.03 8.03-8.03h87.94c4.42 0 8.03 3.61 8.03 8.03v87.91c0 4.42-3.61 8.03-8.03 8.03z" fill="none" opacity=".61" stroke="#000" stroke-miterlimit="10" stroke-width=".2578"/><path d="m99.75 124h-71.75c-4.4 0-8-3.6-8-8v-104c0-4.4 3.6-8 8-8h71.75c4.4 0 8 3.6 8 8v104c0 4.4-3.6 8-8 8z" fill="none" opacity=".61" stroke="#000" stroke-miterlimit="10" stroke-width=".2567"/><path d="M113.77,108H14.23 C8.6,108,4,103.4,4,97.77V30.28c0-5.63,4.6-10.23,10.23-10.23h99.54c5.63,0,10.23,4.6,10.23,10.23v67.48 C124,103.4,119.4,108,113.77,108z" fill="none" opacity=".61" stroke="#000" stroke-miterlimit="10" stroke-width=".2627"/></g><g opacity=".2"><defs><rect id="b" width="128" height="128" opacity=".2"/></defs><clipPath id="a"><use xlink:href="#b"/></clipPath><g clip-path="url(#a)"><g fill="none" stroke="#000" stroke-miterlimit="10" stroke-width=".25"><line x1="-28" x2="-28" y1="160" y2="-32"/><line x1="-24" x2="-24" y1="160" y2="-32"/><line x1="-20" x2="-20" y1="160" y2="-32"/><line x1="-16" x2="-16" y1="160" y2="-32"/><line x1="-12" x2="-12" y1="160" y2="-32"/><line x1="-8" x2="-8" y1="160" y2="-32"/><line x1="-4" x2="-4" y1="160" y2="-32"/><line y1="160" y2="-32"/><line x1="4" x2="4" y1="160" y2="-32"/><line x1="8" x2="8" y1="160" y2="-32"/><line x1="12" x2="12" y1="160" y2="-32"/><line x1="16" x2="16" y1="160" y2="-32"/><line x1="20" x2="20" y1="160" y2="-32"/><line x1="24" x2="24" y1="160" y2="-32"/><line x1="28" x2="28" y1="160" y2="-32"/><line x1="32" x2="32" y1="160" y2="-32"/><line x1="36" x2="36" y1="160" y2="-32"/><line x1="40" x2="40" y1="160" y2="-32"/><line x1="44" x2="44" y1="160" y2="-32"/><line x1="48" x2="48" y1="160" y2="-32"/><line x1="52" x2="52" y1="160" y2="-32"/><line x1="56" x2="56" y1="160" y2="-32"/><line x1="60" x2="60" y1="160" y2="-32"/><line x1="64" x2="64" y1="160" y2="-32"/><line x1="68" x2="68" y1="160" y2="-32"/><line x1="72" x2="72" y1="160" y2="-32"/><line x1="76" x2="76" y1="160" y2="-32"/><line x1="80" x2="80" y1="160" y2="-32"/><line x1="84" x2="84" y1="160" y2="-32"/><line x1="88" x2="88" y1="160" y2="-32"/><line x1="92" x2="92" y1="160" y2="-32"/><line x1="96" x2="96" y1="160" y2="-32"/><line x1="100" x2="100" y1="160" y2="-32"/><line x1="104" x2="104" y1="160" y2="-32"/><line x1="108" x2="108" y1="160" y2="-32"/><line x1="112" x2="112" y1="160" y2="-32"/><line x1="116" x2="116" y1="160" y2="-32"/><line x1="120" x2="120" y1="160" y2="-32"/><line x1="124" x2="124" y1="160" y2="-32"/><line x1="128" x2="128" y1="160" y2="-32"/><line x1="132" x2="132" y1="160" y2="-32"/><line x1="136" x2="136" y1="160" y2="-32"/><line x1="137" x2="137" y1="166.05" y2="-25.95"/><line x1="144" x2="144" y1="160" y2="-32"/><line x1="148" x2="148" y1="160" y2="-32"/><line x1="152" x2="152" y1="160" y2="-32"/><line x1="156" x2="156" y1="160" y2="-32"/></g><g fill="none" stroke="#000" stroke-miterlimit="10" stroke-width=".25"><line x1="-32" x2="160" y1="-28" y2="-28"/><line x1="-32" x2="160" y1="-24" y2="-24"/><line x1="-32" x2="160" y1="-20" y2="-20"/><line x1="-32" x2="160" y1="-16" y2="-16"/><line x1="-32" x2="160" y1="-12" y2="-12"/><line x1="-32" x2="160" y1="-8" y2="-8"/><line x1="-32" x2="160" y1="-4" y2="-4"/><line x1="-32" x2="160"/><line x1="-32" x2="160" y1="4" y2="4"/><line x1="-32" x2="160" y1="8" y2="8"/><line x1="-32" x2="160" y1="12" y2="12"/><line x1="-32" x2="160" y1="16" y2="16"/><line x1="-32" x2="160" y1="20" y2="20"/><line x1="-32" x2="160" y1="24" y2="24"/><line x1="-32" x2="160" y1="28" y2="28"/><line x1="-32" x2="160" y1="32" y2="32"/><line x1="-32" x2="160" y1="36" y2="36"/><line x1="-32" x2="160" y1="40" y2="40"/><line x1="-32" x2="160" y1="44" y2="44"/><line x1="-32" x2="160" y1="48" y2="48"/><line x1="-32" x2="160" y1="52" y2="52"/><line x1="-32" x2="160" y1="56" y2="56"/><line x1="-32" x2="160" y1="60" y2="60"/><line x1="-32" x2="160" y1="64" y2="64"/><line x1="-32" x2="160" y1="68" y2="68"/><line x1="-32" x2="160" y1="72" y2="72"/><line x1="-32" x2="160" y1="76" y2="76"/><line x1="-32" x2="160" y1="80" y2="80"/><line x1="-32" x2="160" y1="84" y2="84"/><line x1="-32" x2="160" y1="88" y2="88"/><line x1="-32" x2="160" y1="92" y2="92"/><line x1="-32" x2="160" y1="96" y2="96"/><line x1="-32" x2="160" y1="100" y2="100"/><line x1="-32" x2="160" y1="104" y2="104"/><line x1="-32" x2="160" y1="108" y2="108"/><line x1="-32" x2="160" y1="112" y2="112"/><line x1="-32" x2="160" y1="116" y2="116"/><line x1="-32" x2="160" y1="120" y2="120"/><line x1="-32" x2="160" y1="124" y2="124"/><line x1="-32" x2="160" y1="128" y2="128"/><line x1="-32" x2="160" y1="132" y2="132"/><line x1="-32" x2="160" y1="136" y2="136"/><line x1="-32" x2="160" y1="140" y2="140"/><line x1="-32" x2="160" y1="144" y2="144"/><line x1="-32" x2="160" y1="148" y2="148"/><line x1="-32" x2="160" y1="152" y2="152"/><line x1="-32" x2="160" y1="156" y2="156"/></g><path d="m159.75-31.75v191.5h-191.5v-191.5h191.5m0.25-0.25h-192v192h192v-192z"/></g></g><g fill="#F44336"><rect width="4" height="128" opacity=".3"/><rect x="124" width="4" height="128" opacity=".3"/><rect transform="matrix(-1.837e-16 1 -1 -1.837e-16 66 -62)" x="62" y="-58" width="4" height="120" opacity=".3"/><rect transform="matrix(-1.837e-16 1 -1 -1.837e-16 190 62)" x="62" y="66" width="4" height="120" opacity=".3"/></g></g></g></svg>

<svg viewBox="0 0 128 128" xmlns="http://www.w3.org/2000/svg"><path d="M123.62 64s-12.89 41.24-59.54 41.24S4.54 64 4.54 64s13.75-41.24 59.54-41.24S123.62 64 123.62 64z" fill="#fff"/><linearGradient id="a" x1="64" x2="64" y1="36.924" y2="108.92" gradientUnits="userSpaceOnUse"><stop stop-color="#424242" offset="0"/><stop stop-color="#757575" offset="1"/></linearGradient><circle cx="64" cy="64" r="38.66" fill="url(#a)"/><circle cx="43" cy="51" r="9" fill="#eee"/><path d="M64 27.34c20.21 0 36.66 16.45 36.66 36.66S84.21 100.66 64 100.66 27.34 84.21 27.34 64 43.79 27.34 64 27.34m0-2c-21.35 0-38.66 17.31-38.66 38.66S42.65 102.66 64 102.66 102.66 85.35 102.66 64 85.35 25.34 64 25.34z" fill="#E0E0E0" opacity=".2"/><path d="M64.08 35.76c34.41 0 50.72 23.28 56.7 34.86 2-3.96 2.83-6.62 2.83-6.62s-13.75-41.24-59.54-41.24C18.29 22.76 4.54 64 4.54 64s.83 2.66 2.83 6.62c5.99-11.58 22.3-34.86 56.71-34.86z" fill="#424242"/><path d="M64.08 25.76c18.01 0 33 6.54 44.54 19.44 7.17 8.01 10.74 16.14 11.8 18.83-1.01 2.69-4.42 10.8-11.49 18.79-11.4 12.89-26.49 19.42-44.85 19.42s-33.45-6.53-44.85-19.42c-7.07-7.99-10.49-16.11-11.5-18.79 1.06-2.69 4.63-10.82 11.8-18.83 11.55-12.9 26.54-19.44 44.55-19.44m0-3C18.29 22.76 4.54 64 4.54 64s12.89 41.24 59.54 41.24S123.62 64 123.62 64s-13.75-41.24-59.54-41.24z" fill="#424242" opacity=".2"/></svg>
